frontend/icons/guides-documents.svg

<symbol id="guides-documents" viewBox="0 0 31 32"  xmlns="http://www.w3.org/2000/svg">
  <path d="M6.683,27.915 L1.236,27.915 C0.8275,27.915 0.555,27.6425 0.555,27.234 L0.487,0.681 C0.487,0.2725 0.7595,0 1.168,0 L22.3425,0 C22.751,0 23.0235,0.2725 23.0235,0.681 L23.0235,2.0425 C23.0235,2.451 22.751,2.7235 22.3425,2.7235 C21.934,2.7235 21.6615,2.451 21.6615,2.0425 L21.6615,1.3615 L1.8485,1.3615 L1.9165,26.553 L6.6825,26.553 C7.091,26.553 7.3635,26.8255 7.3635,27.234 C7.3635,27.6425 7.091,27.915 6.6825,27.915 L6.683,27.915 Z" id="Path"></path>
  <path d="M8.0445,6.8085 L6.002,6.8085 C5.5935,6.8085 5.321,6.536 5.321,6.1275 C5.321,5.719 5.5935,5.4465 6.002,5.4465 L8.0445,5.4465 C8.453,5.4465 8.7255,5.719 8.7255,6.1275 C8.7255,6.536 8.453,6.8085 8.0445,6.8085 Z" id="Path"></path>
  <path d="M8.0445,10.8935 L6.002,10.8935 C5.5935,10.8935 5.321,10.621 5.321,10.2125 C5.321,9.804 5.5935,9.5315 6.002,9.5315 L8.0445,9.5315 C8.453,9.5315 8.7255,9.804 8.7255,10.2125 C8.7255,10.621 8.453,10.8935 8.0445,10.8935 Z" id="Path"></path>
  <path d="M8.0445,14.9785 L6.002,14.9785 C5.5935,14.9785 5.321,14.706 5.321,14.2975 C5.321,13.889 5.5935,13.6165 6.002,13.6165 L8.0445,13.6165 C8.453,13.6165 8.7255,13.889 8.7255,14.2975 C8.7255,14.706 8.453,14.9785 8.0445,14.9785 Z" id="Path"></path>
  <path d="M8.0445,19.064 L6.002,19.064 C5.5935,19.064 5.321,18.7915 5.321,18.383 C5.321,17.9745 5.5935,17.702 6.002,17.702 L8.0445,17.702 C8.453,17.702 8.7255,17.9745 8.7255,18.383 C8.7255,18.7915 8.453,19.064 8.0445,19.064 Z" id="Path"></path>
  <path d="M29.832,4.085 L8.6575,4.085 C8.249,4.085 7.9765,4.3575 7.9765,4.766 L8.0445,31.319 C8.0445,31.7275 8.317,32 8.7255,32 L29.832,32 C30.2405,32 30.513,31.7275 30.513,31.319 L30.513,4.766 C30.513,4.3575 30.2405,4.085 29.832,4.085 Z M29.151,30.6385 L9.4065,30.6385 L9.3385,5.447 L29.1515,5.447 L29.1515,30.6385 L29.151,30.6385 Z" id="Shape"></path>
  <path d="M18.1215,22.8085 L17.5085,22.8085 L18.1215,18.9955 L16.215,18.9955 C16.011,18.9955 15.8745,18.8595 15.8745,18.655 C15.8745,18.587 15.8745,18.519 15.9425,18.451 L19.347,12.664 L19.96,12.664 L19.347,16.477 L21.2535,16.477 C21.4575,16.477 21.594,16.613 21.594,16.8175 C21.594,16.8855 21.594,16.9535 21.526,17.0215 L18.1215,22.8085 Z" id="Path"></path>
</symbol>

<symbol id="guides-documents" viewBox="0 0 31 32">
  <path d="M6.683 27.915h-5.447c-0.408 0-0.681-0.273-0.681-0.681l-0.068-26.553c0-0.408 0.273-0.681 0.681-0.681h21.174c0.409 0 0.681 0.273 0.681 0.681v1.361c0 0.409-0.273 0.681-0.681 0.681s-0.681-0.272-0.681-0.681v-0.681h-19.813l0.068 25.192h4.766c0.409 0 0.681 0.273 0.681 0.681s-0.272 0.681-0.681 0.681h0z"></path>
  <path d="M8.044 6.809h-2.043c-0.409 0-0.681-0.272-0.681-0.681s0.272-0.681 0.681-0.681h2.043c0.409 0 0.681 0.272 0.681 0.681s-0.273 0.681-0.681 0.681z"></path>
  <path d="M8.044 10.893h-2.043c-0.409 0-0.681-0.273-0.681-0.681s0.272-0.681 0.681-0.681h2.043c0.409 0 0.681 0.273 0.681 0.681s-0.273 0.681-0.681 0.681z"></path>
  <path d="M8.044 14.979h-2.043c-0.409 0-0.681-0.273-0.681-0.681s0.272-0.681 0.681-0.681h2.043c0.409 0 0.681 0.273 0.681 0.681s-0.273 0.681-0.681 0.681z"></path>
  <path d="M8.044 19.064h-2.043c-0.409 0-0.681-0.273-0.681-0.681s0.272-0.681 0.681-0.681h2.043c0.409 0 0.681 0.273 0.681 0.681s-0.273 0.681-0.681 0.681z"></path>
  <path d="M29.832 4.085h-21.174c-0.409 0-0.681 0.272-0.681 0.681l0.068 26.553c0 0.409 0.273 0.681 0.681 0.681h21.107c0.409 0 0.681-0.273 0.681-0.681v-26.553c0-0.409-0.273-0.681-0.681-0.681zM29.151 30.639h-19.744l-0.068-25.192h19.813v25.192h-0z"></path>
  <path d="M18.122 22.808h-0.613l0.613-3.813h-1.907c-0.204 0-0.341-0.136-0.341-0.34 0-0.068 0-0.136 0.068-0.204l3.404-5.787h0.613l-0.613 3.813h1.907c0.204 0 0.34 0.136 0.34 0.34 0 0.068 0 0.136-0.068 0.204l-3.404 5.787z"></path>
</symbol>
